src/assets/icons/sax/IconTag.svg

<svg width="20" height="20" viewBox="0 0 24 24" fill="none" xmlns="http://www.w3.org/2000/svg">
<path d="M4.16989 15.3L8.69989 19.83C10.5599 21.69 13.5799 21.69 15.4499 19.83L19.8399 15.44C21.6999 13.58 21.6999 10.56 19.8399 8.69005L15.2999 4.17005C14.3499 3.22005 13.0399 2.71005 11.6999 2.78005L6.69989 3.02005C4.69989 3.11005 3.10989 4.70005 3.00989 6.69005L2.76989 11.69C2.70989 13.04 3.21989 14.35 4.16989 15.3Z" stroke="currentColor" stroke-width="1.5" stroke-linecap="round" stroke-linejoin="round"/>
<path d="M9.5 12C10.8807 12 12 10.8807 12 9.5C12 8.11929 10.8807 7 9.5 7C8.11929 7 7 8.11929 7 9.5C7 10.8807 8.11929 12 9.5 12Z" stroke="currentColor" stroke-width="1.5" stroke-linecap="round"/>
</svg>

<svg xmlns="http://www.w3.org/2000/svg" width="20" height="20" fill="none" viewBox="0 0 24 24">
  <path stroke="currentcolor" stroke-linecap="round" stroke-linejoin="round" stroke-width="1.5" d="m4.17 15.3 4.53 4.53a4.8 4.8 0 0 0 6.75 0l4.39-4.39a4.8 4.8 0 0 0 0-6.75L15.3 4.17a4.8 4.8 0 0 0-3.6-1.39l-5 .24a3.86 3.86 0 0 0-3.69 3.67l-.24 5a4.8 4.8 0 0 0 1.4 3.61"/>
  <path stroke="currentcolor" stroke-linecap="round" stroke-width="1.5" d="M9.5 12a2.5 2.5 0 1 0 0-5 2.5 2.5 0 0 0 0 5Z"/>
</svg>
